!!!OTL: 43f. Edelmann und Schaefer.
!!!ARE: Europa, Mitteleuropa, Deutschland
!!!SCT: E0043C
!!!TXL: @@DE
!!!YEM: Copyright 1995, estate of Helmut Schaffrath.
**kern	**text
*ICvox	*
*M4/4	*
*met(c)	*
*k[b-]	*
*F:	*
!LO:TX:a:t=Solo.	!
!LO:TX:a:t=Munter.	!
!LO:TX:a:t=Mel. durch L. Scheſer bei Scherer, Volksl. 23 B.	!
{8f	Es
=1	=1
8fL	wei-
8gJ	.
8a	-det
8b-	ein
4cc	Schä-
8dd	-fer
8ee	im
=2	=2
4ff	lan-
8ccL	-gen
8aJ	.
4f	Holʒ
4r}	.
=3	=3
!LO:TX:a:t=Refr.	!
{4.dd	[Veil-
8cc	-chen,
8ddL	Ro-
8ccJ	.
8b-L	-ſen-
8aJ	.
=4	=4
(4.g	-Blu-
8a)	.
4g}	-men],
!LO:TX:a:t=Solo.	!
{8aL	be-
8b-J	.
=5	=5
4cc	-geg-
4cc	-net
8ddL	ihm
8ccJ	.
8b-L	ein
8aJ	.
=6	=6
4g	E-
8g	-del-
8g	-mann
4g}	ſtolʒ.
!LO:TX:a:t=Refr.	!
{8cc	[Berg
8a	und
=7	=7
4g	Thal,
8g	küh-
8g	-ler
4g	Schnee,
8cc	Berg
8a	und
=8	=8
4g	Thal,
8g	küh-
8g	-ler
4g	Schnee
4r}	.
=9	=9
{4cc	Herʒ-
8ddL	-lieb,
8eeJ	.
4.ff	ſchei-
8b-	-den
=10	=10
4a	das
4g	thut
4f	weh.]
8r}	.
==	==
!!!AGN: erzaehlendes Volks - Lied, Ritter - Sage, Ballade ?
!!!ONB: ESAC (Essen Associative Code) Database: ERK1
!!!AMT: simple quadruple
!!!AIN: vox
!!!EED: Helmut Schaffrath
!!!EEV: 1.0
!!!GTL: Ritter- und Raeubersagen
!!!URL-scan: https://rosdok.uni-rostock.de/mcrviewer/recordIdentifier/rosdok_ppn745146120/iview2/phys_0219.iview2?x=-250.1417780126858&y=1617.9111809602473&scale=0.5392104374602399&rotation=0&layout=singlePageLayout&logicalDiv=log_0009
!!!ENC: Anna Maria Matuszewska
!!!EEV: 2024/11/25
*-	*-
